X: 18454
T: Hurricane, The
R: reel
M: 4/4
K: Amajor
d|:cABG A2ed|cEAc B3d|cABG Aaga|1 fa ed cAAd:|2 f2 ed caaa||
|:GAeA caaa|GAeA f3a|GAeA ABcd|1 e2ed caaa:|2 e2ed caag||
ac'e'c' aecA|GABA G2bg|ac'e'c' aecA|defg gaag|
ac'e'c' aecA|GAeA G2bg|c'abg aaga|f2ed cAag|
efff efff|efge ^deb2|c'zaf cfc'z|gabg afff|
f2af =f^faf|efge ^deBe|aefd ceAa|ecdB cAA||

